assets/images/icons/step-04.svg

<svg width="56" height="56" viewBox="0 0 56 56" fill="none" xmlns="http://www.w3.org/2000/svg">
<g clip-path="url(#clip0_379_9111)">
<path d="M0.390461 40.5331C-0.103146 36.3161 -0.171712 32.178 0.434048 28.4341C1.17891 23.8305 3.12357 18.709 5.24808 14.1288C9.40029 5.17719 16.8334 2.04549 25.8846 0.633614C38.5011 -1.33441 55.89 0.633659 55.9999 15.9025C55.367 21.3628 51.1904 36.5426 37.0914 37.7009C32.4298 38.0839 30.6858 42.7662 28.632 48.1261C23.2275 62.2304 2.19751 55.9711 0.390461 40.5331Z" fill="#E0E9E6"/>
<path d="M27.475 29.3127C25.5981 29.3127 24.0625 30.8484 24.0625 32.7252V34.3002C24.0625 36.4659 25.8344 38.2377 28 38.2377C30.1656 38.2377 31.9375 36.4659 31.9375 34.3002V32.7252C31.9375 30.8484 30.4019 29.3127 28.525 29.3127H27.475Z" fill="#7FB51F"/>
<path d="M43.75 34.3002V32.7252C43.75 30.8484 42.2144 29.3127 40.3375 29.3127H39.2875C37.4106 29.3127 35.875 30.8484 35.875 32.7252V34.3002C35.875 36.4659 37.6469 38.2377 39.8125 38.2377C41.9781 38.2377 43.75 36.4659 43.75 34.3002Z" fill="#7FB51F"/>
<path d="M45.6795 37.1877C44.6032 39.3534 42.3982 40.8627 39.8126 40.8627C39.3007 40.8627 38.8151 40.7971 38.3426 40.679C38.4345 41.2565 38.5001 41.834 38.5001 42.4377V47.6877H45.0626C46.5064 47.6877 47.6876 46.5065 47.6876 45.0627V42.4377C47.6876 40.4165 46.9264 38.579 45.6795 37.1877Z" fill="#7FB51F"/>
<path d="M28 40.8627C25.4406 40.8627 23.2488 39.3796 22.1725 37.2534C20.8994 38.7234 20.125 40.6659 20.125 42.7134V47.6877H35.875V42.4377C35.875 40.4165 35.1137 38.579 33.8669 37.1877C32.7906 39.3534 30.5856 40.8627 28 40.8627Z" fill="#7FB51F"/>
<path d="M28 26.6877C33.0662 26.6877 37.1875 22.5665 37.1875 17.5002C37.1875 12.434 33.0662 8.31274 28 8.31274C22.9338 8.31274 18.8125 12.434 18.8125 17.5002C18.8125 22.5665 22.9338 26.6877 28 26.6877ZM23.7869 16.4502C24.2856 15.9252 25.1256 15.9252 25.6375 16.4371L26.9894 17.7627L30.3625 14.4684C30.8744 13.9565 31.7144 13.9696 32.2131 14.4815C32.725 14.9934 32.7119 15.8334 32.2 16.3321L27.9081 20.5321C27.6588 20.7815 27.3175 20.9127 26.9894 20.9127C26.6612 20.9127 26.32 20.7815 26.0706 20.5321L23.8 18.3009C23.2881 17.789 23.275 16.9621 23.7869 16.4502Z" fill="#7FB51F"/>
<path d="M39.8125 17.5002C39.8125 18.2221 40.4031 18.8127 41.125 18.8127H43.0938C43.8156 18.8127 44.4062 18.2221 44.4062 17.5002C44.4062 16.7784 43.8156 16.1877 43.0938 16.1877H41.125C40.4031 16.1877 39.8125 16.7784 39.8125 17.5002Z" fill="#7FB51F"/>
<path d="M39.8122 14.0611C40.0353 14.0611 40.2584 14.0086 40.4684 13.8905L42.1747 12.9061C42.8047 12.5386 43.0147 11.738 42.6603 11.108C42.2928 10.478 41.4922 10.268 40.8622 10.6223L39.1559 11.6067C38.5259 11.9742 38.3159 12.7748 38.6703 13.4048C38.9197 13.8248 39.3528 14.0611 39.8122 14.0611Z" fill="#7FB51F"/>
<path d="M39.1563 23.3931L40.8625 24.3775C41.0725 24.4956 41.2956 24.5481 41.5188 24.5481C41.9781 24.5481 42.4113 24.3119 42.6606 23.8919C43.0281 23.2619 42.805 22.4612 42.175 22.0937L40.4688 21.1094C39.8388 20.7419 39.0381 20.965 38.6706 21.595C38.3031 22.225 38.5263 23.0256 39.1563 23.3931Z" fill="#7FB51F"/>
<path d="M12.9062 18.8127H14.875C15.5969 18.8127 16.1875 18.2221 16.1875 17.5002C16.1875 16.7784 15.5969 16.1877 14.875 16.1877H12.9062C12.1844 16.1877 11.5938 16.7784 11.5938 17.5002C11.5938 18.2221 12.1844 18.8127 12.9062 18.8127Z" fill="#7FB51F"/>
<path d="M13.8248 12.8931L15.531 13.8775C15.741 13.9956 15.9642 14.0481 16.1873 14.0481C16.6467 14.0481 17.0798 13.8119 17.3292 13.3919C17.6967 12.7619 17.4735 11.9612 16.8435 11.5937L15.1373 10.6094C14.5073 10.2419 13.7067 10.465 13.3392 11.095C12.9717 11.725 13.1948 12.5256 13.8248 12.8931Z" fill="#7FB51F"/>
<path d="M15.5312 21.1223L13.8249 22.1067C13.1949 22.4742 12.9849 23.2748 13.3393 23.9048C13.5887 24.3248 14.0218 24.5611 14.4812 24.5611C14.7043 24.5611 14.9274 24.5086 15.1374 24.3905L16.8437 23.4061C17.4737 23.0386 17.6837 22.238 17.3293 21.608C16.9618 20.978 16.1612 20.768 15.5312 21.1223Z" fill="#7FB51F"/>
<path d="M20.125 32.7252C20.125 30.8484 18.5894 29.3127 16.7125 29.3127H15.6625C13.7856 29.3127 12.25 30.8484 12.25 32.7252V34.3002C12.25 36.4659 14.0219 38.2377 16.1875 38.2377C18.3531 38.2377 20.125 36.4659 20.125 34.3002V32.7252Z" fill="#7FB51F"/>
<path d="M10.3206 37.1877C9.07375 38.579 8.3125 40.4165 8.3125 42.4377V45.0627C8.3125 46.5065 9.49375 47.6877 10.9375 47.6877H17.5V42.4377C17.5 41.834 17.5656 41.2565 17.6575 40.679C17.185 40.784 16.6994 40.8627 16.1875 40.8627C13.615 40.8627 11.3969 39.3534 10.3206 37.1877Z" fill="#7FB51F"/>
</g>
<defs>
<clipPath id="clip0_379_9111">
<rect width="56" height="56" fill="white"/>
</clipPath>
</defs>
</svg>

<svg xmlns="http://www.w3.org/2000/svg" width="56" height="56" fill="none"><g clip-path="url(#a)"><path fill="#E0E9E6" d="M.39 40.533c-.493-4.217-.562-8.355.044-12.099.745-4.603 2.69-9.725 4.814-14.305C9.4 5.177 16.833 2.045 25.885.634 38.5-1.334 55.89.634 56 15.903c-.633 5.46-4.81 20.64-18.909 21.798-4.661.383-6.405 5.065-8.459 10.425C23.227 62.23 2.198 55.971.39 40.533"/><path fill="#7FB51F" d="M27.475 29.313a3.423 3.423 0 0 0-3.413 3.412V34.3A3.95 3.95 0 0 0 28 38.238a3.95 3.95 0 0 0 3.938-3.938v-1.575a3.423 3.423 0 0 0-3.413-3.412zM43.75 34.3v-1.575a3.423 3.423 0 0 0-3.413-3.412h-1.05a3.423 3.423 0 0 0-3.412 3.412V34.3a3.95 3.95 0 0 0 3.938 3.938A3.95 3.95 0 0 0 43.75 34.3m1.93 2.888c-1.077 2.165-3.282 3.675-5.867 3.675-.512 0-.998-.066-1.47-.184a11 11 0 0 1 .157 1.759v5.25h6.563a2.633 2.633 0 0 0 2.625-2.625v-2.625a7.84 7.84 0 0 0-2.009-5.25"/><path fill="#7FB51F" d="M28 40.863c-2.56 0-4.751-1.483-5.828-3.61a8.4 8.4 0 0 0-2.047 5.46v4.975h15.75v-5.25a7.84 7.84 0 0 0-2.008-5.25c-1.076 2.165-3.281 3.675-5.867 3.675m0-14.175c5.066 0 9.188-4.121 9.188-9.188 0-5.066-4.122-9.187-9.188-9.187s-9.187 4.121-9.187 9.187c0 5.067 4.12 9.188 9.187 9.188M23.787 16.45a1.295 1.295 0 0 1 1.85-.013l1.352 1.326 3.374-3.295a1.307 1.307 0 0 1 1.85.014 1.307 1.307 0 0 1-.013 1.85l-4.292 4.2c-.25.25-.59.38-.919.38-.328 0-.669-.13-.918-.38L23.8 18.301a1.307 1.307 0 0 1-.013-1.85M39.813 17.5c0 .722.59 1.313 1.312 1.313h1.969c.722 0 1.312-.59 1.312-1.313 0-.722-.59-1.312-1.312-1.312h-1.969c-.722 0-1.312.59-1.312 1.312m-.001-3.439c.223 0 .446-.052.656-.17l1.707-.985c.63-.367.84-1.168.485-1.798a1.326 1.326 0 0 0-1.798-.486l-1.706.985a1.326 1.326 0 0 0-.486 1.798c.25.42.683.656 1.142.656m-.656 9.332 1.706.985c.21.118.434.17.657.17a1.315 1.315 0 0 0 .656-2.454l-1.706-.985a1.315 1.315 0 0 0-1.798.486c-.368.63-.145 1.43.485 1.798m-26.25-4.58h1.969c.722 0 1.313-.59 1.313-1.313 0-.722-.591-1.312-1.313-1.312h-1.969c-.722 0-1.312.59-1.312 1.312s.59 1.313 1.312 1.313m.919-5.92 1.706.984c.21.119.433.171.656.171a1.315 1.315 0 0 0 .656-2.454l-1.706-.985a1.314 1.314 0 0 0-1.798.486c-.367.63-.144 1.43.486 1.798m1.706 8.229-1.706.985a1.326 1.326 0 0 0-.486 1.798c.25.42.683.656 1.142.656.223 0 .446-.052.656-.17l1.707-.985c.63-.367.84-1.168.485-1.798a1.326 1.326 0 0 0-1.798-.486m4.594 11.603a3.423 3.423 0 0 0-3.413-3.412h-1.05a3.423 3.423 0 0 0-3.412 3.412V34.3a3.95 3.95 0 0 0 3.938 3.938 3.95 3.95 0 0 0 3.937-3.938zm-9.805 4.463a7.84 7.84 0 0 0-2.008 5.25v2.625a2.633 2.633 0 0 0 2.626 2.625H17.5v-5.25c0-.604.066-1.181.157-1.759a6.7 6.7 0 0 1-1.47.184c-2.572 0-4.79-1.51-5.866-3.675"/></g><defs><clipPath id="a"><path fill="#fff" d="M0 0h56v56H0z"/></clipPath></defs></svg>
